X:5
%%scale 0.85
T:Out from the deep
T:Bass Viol
C:Thomas Tallis
%%measurenb 0
L:1/4
M:4/4
K:C clef=bass
 C,2 F, F, | C, C, G, G, | D,/E,/F,/G,/ A,3/2 G,/ | F, G, D,3/2 D,/ | 
w:Out from the deep I call to thee: O Lord_ hear my in- vo- ca- ti- 
G,,2 z C, | C, A,, G,, G, | A, A, G, G, | F,3/2 F,/ F, C, | G,3/2 G,/ C,2- | C,2 z2 |
w:on. Thine ears bow down, in- cline to me and hear my la- men- ta- ti- on._ 
 z z2 F, | F, C, E, D, |  F,3/2 F,/ C,/D,/E,/C,/ | G, F, F, G, | 
w:For if thou wilt our sins be- hold, that we have done from time to 
 D, D, G,3/2 F,/ | E, C, F,3/2 E,/ | D,2 C,2 | z G,, C,3/2 C,/ | 
w:tide. O Lord who then dare be so_ bold. O Lord who
 B,, B,, A,, A,, | G,, G, D,3/2 E,/ | F, G, D, D, | G,,3/2 A,,/ B,, C, | G,,2 C,2- | 
w:then dare be so bold as in thy sight for to a- bide. For to a - bide. 
 C,2 z2 | z z2 F, | F, C, E, D, | F,3/2 F,/ C,/D,/E,/C,/ | G, F, F, G, | %28
w:_ For if thou wilt our sins be- hold, that we have done from time to
 D, D, G,3/2 F,/ | E, C, F,3/2 E,/ | D,2 C,2 | z G,, C,3/2 C,/ | B,, B,, A,, A,, | %33
w:tide. O Lord, who then dare be so_ bold. O Lord, who then dare be so 
 G,, G, D,3/2 E,/ | F, G, D, D, | G,,3/2 A,,/ B,, C, | G,,2 C,2- | HC,4 |] %38
w:bold as in thy sight for to a- bide, for to a - bide._
%

